X: 42538
T: Whelan's Old Sow
R: jig
M: 6/8
K: Dmajor
~F3 EDE|F2D DAG|~F3 EFE|DFA dAG|
~F3 EDE|F2D DFA|B2dA2d|F2B AFE:|
DFA ~d3|ABF AFE|DFA d2A|Bcd ecA|
AFA d2e|fdB BAF|B2d A2d|F2B AFE:|

